X:1
T:Psalm 53
T:V 2
L:1/4
M:12/4
I:linebreak $
K:C
V:1 treble nm="Pipe Organ" snm="Org."
V:1
 A2 A A D E F2 G2 E2 |$[M:14/4] A2 G G A B c2 B2 A3 z |$[M:12/4] A2 A A D2 A2 G F E2 |$ %3
w: God het die mens se werk be- trag|uit He- mel- ho- ë\_en- hel- der dag,|of Hy ook by die men- se- kind|
[M:14/4] E2 F G A D F2 E2 D4 |] %4
w: ver- stand mét wa- re Gods- vrees vind.|

